cssgg/arrows-expand-up-right.svg

<svg
  width="24"
  height="24"
  viewBox="0 0 24 24"
  fill="none"
  xmlns="http://www.w3.org/2000/svg"
>
  <path
    d="M13 5V3L21 3V11H19V6.41424L13.6361 11.7782C13.2456 12.1687 12.6124 12.1687 12.2219 11.7782C11.8314 11.3876 11.8314 10.7545 12.2219 10.3639L17.5858 5L13 5Z"
    fill="currentColor"
  />
  <path
    fill-rule="evenodd"
    clip-rule="evenodd"
    d="M5 13C3.89543 13 3 13.8954 3 15L3 19C3 20.1046 3.89543 21 5 21H9C10.1046 21 11 20.1046 11 19V15C11 13.8954 10.1046 13 9 13H5ZM5 15L5 19H9V15H5Z"
    fill="currentColor"
  />
</svg>

<svg viewBox="0 0 24 24" xmlns="http://www.w3.org/2000/svg"><g><path d="M13 5V3h8v8h-2V6.41l-5.37 5.36c-.4.39-1.03.39-1.42 0 -.4-.4-.4-1.03 0-1.42l5.36-5.37h-4.59Z"/><path fill-rule="evenodd" d="M5 13c-1.11 0-2 .89-2 2v4c0 1.1.89 2 2 2h4c1.1 0 2-.9 2-2v-4c0-1.11-.9-2-2-2H5Zm0 2v4h4v-4H5Z"/></g></svg>
